third_party/noto/noto_2/emoji_u1f68b.svg

<svg enable-background="new 0 0 128 128" version="1.1" viewBox="0 0 128 128" xmlns="http://www.w3.org/2000/svg"><line x1="4" x2="124" y1="5.5" y2="5.5" fill="none" stroke="#607D8B" stroke-miterlimit="10" stroke-width="3"/><rect x="40.73" y="30.32" width="13.81" height="3.99" fill="#607D8B"/><path d="m59.63 31.48h-24c-1 0-1.81-0.81-1.81-1.81v-0.17c0-1 0.81-1.81 1.81-1.81h24c1 0 1.81 0.81 1.81 1.81v0.17c0 1-0.81 1.81-1.81 1.81z" fill="#82AEC0"/><path d="m57.74 30.27" fill="none" stroke="#82AEC0" stroke-miterlimit="10" stroke-width="2"/><path d="m48.87 29.37 11.06-10.61c0.42-0.41 0.43-1.09 0.02-1.51l-13.33-11.6" fill="none" stroke="#82AEC0" stroke-miterlimit="10" stroke-width="3"/><polygon points="45.65 6.79 50.38 10.94 52.58 8.89 47.6 4.55" fill="#607D8B"/><polygon points="57.06 15.62 57.06 20.19 59.28 17.9" fill="#82AEC0"/><path d="m46.39 29.37-11.06-10.61c-0.42-0.41-0.43-1.09-0.02-1.51l13.33-11.6" fill="none" stroke="#82AEC0" stroke-miterlimit="10" stroke-width="3"/><polygon points="49.62 6.79 44.89 10.94 42.69 8.89 47.66 4.55" fill="#607D8B"/><polygon points="38.2 15.62 38.2 20.19 35.99 17.9" fill="#82AEC0"/><path d="m50.12 8.71h-4.97c-0.61 0-1.1-0.49-1.1-1.1v-3.92c0-0.61 0.49-1.1 1.1-1.1h4.97c0.61 0 1.1 0.49 1.1 1.1v3.92c-0.01 0.6-0.5 1.1-1.1 1.1z" fill="#82AEC0"/><circle cx="37.39" cy="115.03" r="8.97" fill="#455A64"/><path d="m39.58 116.4c-0.52 0.64-1.3 1.07-2.2 1.07-0.89 0-1.68-0.42-2.2-1.07h-3.58c0.62 2.63 2.96 4.59 5.78 4.59s5.16-1.96 5.78-4.59h-3.58z" fill="#607D8B"/><circle cx="90.61" cy="115.03" r="8.97" fill="#455A64"/><path d="m92.81 116.4c-0.52 0.64-1.3 1.07-2.2 1.07-0.89 0-1.68-0.42-2.2-1.07h-3.58c0.62 2.63 2.96 4.59 5.78 4.59s5.16-1.96 5.78-4.59h-3.58z" fill="#607D8B"/><polygon points="78.13 119.53 50.3 119.53 46.74 111.86 81.26 111.86" fill="#455A64"/><polygon points="6.32 48.36 6.32 74.58 121.68 74.58 121.68 48.95" fill="#eee"/><path d="M7,45.62c-0.43,1.27-0.68,2.81-0.68,4.68h115.36c0-1.79-0.25-3.41-0.68-4.68H7z" fill="#9E9E9E"/><path d="m6.64 46.88h114.72c-1.27-5.61-6.27-12.8-12.26-12.8h-90.2c-5.99 0-10.99 7.2-12.26 12.8z" fill="#BDBDBD"/><polygon points="124 108.84 121.68 102.96 121.68 70.43 6.32 70.43 6.32 102.96 4 108.84" fill="#FFCA28"/><rect x="4" y="108.84" width="120" height="5.36" fill="#82AEC0"/><rect x="23.39" y="65.84" width="14.6" height="15.56" fill="#BAE2FD"/><path d="m36.98 82.4h-12.59c-1.11 0-2-0.9-2-2v-13.56c0-1.11 0.9-2 2-2h12.6c1.11 0 2 0.9 2 2v13.55c0 1.11-0.9 2.01-2.01 2.01zm-13.09-14.75v11.93c0 0.45 0.36 0.81 0.81 0.81h11.98c0.45 0 0.81-0.36 0.81-0.81v-11.93c0-0.45-0.36-0.81-0.81-0.81h-11.98c-0.45 0-0.81 0.36-0.81 0.81z" fill="#37474F"/><line x1="22.89" x2="38.12" y1="70.8" y2="70.8" fill="none" stroke="#37474F" stroke-miterlimit="10"/><rect x="90.01" y="65.84" width="14.6" height="15.56" fill="#BAE2FD"/><path d="m103.61 82.4h-12.59c-1.11 0-2-0.9-2-2v-13.56c0-1.11 0.9-2 2-2h12.6c1.11 0 2 0.9 2 2v13.55c-0.01 1.11-0.9 2.01-2.01 2.01zm-13.09-14.75v11.93c0 0.45 0.36 0.81 0.81 0.81h11.98c0.45 0 0.81-0.36 0.81-0.81v-11.93c0-0.45-0.36-0.81-0.81-0.81h-11.98c-0.45 0-0.81 0.36-0.81 0.81z" fill="#37474F"/><line x1="89.51" x2="104.75" y1="70.8" y2="70.8" fill="none" stroke="#37474F" stroke-miterlimit="10"/><path d="m47.86 107.86c-1.61 0-2.92-1.4-2.92-3.13v-39.23c0-2.02 1.53-3.66 3.42-3.66h32.12c1.42 0 2.57 1.24 2.57 2.76v40.5c0 1.52-1.15 2.76-2.57 2.76h-32.62z" fill="#FFCA28"/><path d="m80.49 62.84c0.86 0 1.57 0.79 1.57 1.76v40.5c0 0.97-0.7 1.76-1.57 1.76h-32.63c-1.06 0-1.92-0.96-1.92-2.13v-39.23c0-1.47 1.08-2.66 2.42-2.66h32.13m0-2h-32.13c-2.44 0-4.42 2.09-4.42 4.66v39.23c0 2.28 1.75 4.13 3.92 4.13h32.62c1.97 0 3.57-1.68 3.57-3.76v-40.5c0-2.08-1.59-3.76-3.56-3.76z" fill="#9E740B"/><path d="m77.12 64.84h-7.49c-1.47 0-2.66 1.19-2.66 2.66v17.59c0 1.47 1.19 2.66 2.66 2.66h7.49c1.47 0 2.66-1.19 2.66-2.66v-17.59c0-1.47-1.19-2.66-2.66-2.66z" fill="#37474F"/><path d="m76.57 67.16h-6.17c-1.1 0-2 0.9-2 2v14.21c0 1.1 0.9 2 2 2h6.17c1.1 0 2-0.9 2-2v-14.21c0-1.1-0.89-2-2-2z" fill="#BAE2FD"/><path d="m58.24 64.84h-7.49c-1.47 0-2.66 1.19-2.66 2.66v17.59c0 1.47 1.19 2.66 2.66 2.66h7.49c1.47 0 2.66-1.19 2.66-2.66v-17.59c-0.01-1.47-1.2-2.66-2.66-2.66z" fill="#37474F"/><path d="m57.69 67.16h-6.17c-1.1 0-2 0.9-2 2v14.21c0 1.1 0.9 2 2 2h6.17c1.1 0 2-0.9 2-2v-14.21c0-1.1-0.9-2-2-2z" fill="#BAE2FD"/><line x1="64" x2="64" y1="61.8" y2="107.4" fill="none" stroke="#9E740B" stroke-miterlimit="10" stroke-width="2"/><rect x="6.32" y="65.84" width="10.25" height="20.56" fill="#BAE2FD"/><path d="m14.51 85.39c0.73 0 1.33-0.6 1.33-1.33v-15.89c0-0.73-0.6-1.33-1.33-1.33h-8.18v-2h9.11c1.11 0 2 0.9 2 2v18.55c0 1.11-0.9 2-2 2h-9.12v-2h8.19z" fill="#37474F"/><rect x="111.57" y="65.84" width="10.11" height="20.56" fill="#BAE2FD"/><path d="m113.49 85.39c-0.73 0-1.33-0.6-1.33-1.33v-15.89c0-0.73 0.6-1.33 1.33-1.33h8.18v-2h-9.11c-1.11 0-2 0.9-2 2v18.55c0 1.11 0.9 2 2 2h9.11v-2h-8.18z" fill="#37474F"/></svg>

<?xml version="1.0" encoding="utf-8"?>
<!-- Generator: Adobe Illustrator 25.2.3, SVG Export Plug-In . SVG Version: 6.00 Build 0)  -->
<svg version="1.1" id="Layer_4" xmlns="http://www.w3.org/2000/svg" xmlns:xlink="http://www.w3.org/1999/xlink" x="0px" y="0px"
	 viewBox="0 0 128 128" style="enable-background:new 0 0 128 128;" xml:space="preserve">
<g>
	<line style="fill:none;stroke:#607D8B;stroke-width:3;stroke-miterlimit:10;" x1="4" y1="5.5" x2="124" y2="5.5"/>
	<rect x="40.73" y="30.32" style="fill:#607D8B;" width="13.81" height="3.99"/>
	<path style="fill:#82AEC0;" d="M59.63,31.48h-24c-1,0-1.81-0.81-1.81-1.81V29.5c0-1,0.81-1.81,1.81-1.81h24
		c1,0,1.81,0.81,1.81,1.81v0.17C61.44,30.67,60.63,31.48,59.63,31.48z"/>
	<path style="fill:none;stroke:#82AEC0;stroke-width:2;stroke-miterlimit:10;" d="M57.74,30.27"/>
	<path style="fill:none;stroke:#82AEC0;stroke-width:3;stroke-miterlimit:10;" d="M48.87,29.37l11.06-10.61
		c0.42-0.41,0.43-1.09,0.02-1.51L46.62,5.65"/>
	<polygon style="fill:#607D8B;" points="45.65,6.79 50.38,10.94 52.58,8.89 47.6,4.55 	"/>
	<polygon style="fill:#82AEC0;" points="57.06,15.62 57.06,20.19 59.28,17.9 	"/>
	<path style="fill:none;stroke:#82AEC0;stroke-width:3;stroke-miterlimit:10;" d="M46.39,29.37L35.33,18.76
		c-0.42-0.41-0.43-1.09-0.02-1.51l13.33-11.6"/>
	<polygon style="fill:#607D8B;" points="49.62,6.79 44.89,10.94 42.69,8.89 47.66,4.55 	"/>
	<polygon style="fill:#82AEC0;" points="38.2,15.62 38.2,20.19 35.99,17.9 	"/>
	<path style="fill:#82AEC0;" d="M50.12,8.71h-4.97c-0.61,0-1.1-0.49-1.1-1.1V3.69c0-0.61,0.49-1.1,1.1-1.1h4.97
		c0.61,0,1.1,0.49,1.1,1.1v3.92C51.21,8.21,50.72,8.71,50.12,8.71z"/>
	<circle style="fill:#455A64;" cx="37.39" cy="115.03" r="8.97"/>
	<path style="fill:#607D8B;" d="M39.58,116.4c-0.52,0.64-1.3,1.07-2.2,1.07c-0.89,0-1.68-0.42-2.2-1.07h-3.58
		c0.62,2.63,2.96,4.59,5.78,4.59c2.82,0,5.16-1.96,5.78-4.59H39.58z"/>
	<circle style="fill:#455A64;" cx="90.61" cy="115.03" r="8.97"/>
	<path style="fill:#607D8B;" d="M92.81,116.4c-0.52,0.64-1.3,1.07-2.2,1.07c-0.89,0-1.68-0.42-2.2-1.07h-3.58
		c0.62,2.63,2.96,4.59,5.78,4.59c2.82,0,5.16-1.96,5.78-4.59H92.81z"/>
	<polygon style="fill:#455A64;" points="78.13,119.53 50.3,119.53 46.74,111.86 81.26,111.86 	"/>
	<polygon style="fill:#EEEEEE;" points="6.32,48.36 6.32,74.58 121.68,74.58 121.68,48.95 	"/>
	<path style="fill:#9E9E9E;" d="M7,45.62c-0.43,1.27-0.68,2.81-0.68,4.68h115.36c0-1.79-0.25-3.41-0.68-4.68H7z"/>
	<path style="fill:#BDBDBD;" d="M6.64,46.88h114.72c-1.27-5.61-6.27-12.8-12.26-12.8H18.9C12.91,34.08,7.91,41.28,6.64,46.88z"/>
	<polygon style="fill:#FFCA28;" points="124,108.84 121.68,102.96 121.68,70.43 6.32,70.43 6.32,102.96 4,108.84 	"/>
	<rect x="4" y="108.84" style="fill:#82AEC0;" width="120" height="5.36"/>
	<g>
		<rect x="23.39" y="65.84" style="fill:#BAE2FD;" width="14.6" height="15.56"/>
	</g>
	<path style="fill:#37474F;" d="M36.98,82.4H24.39c-1.11,0-2-0.9-2-2V66.84c0-1.11,0.9-2,2-2h12.6c1.11,0,2,0.9,2,2v13.55
		C38.99,81.5,38.09,82.4,36.98,82.4z M23.89,67.65l0,11.93c0,0.45,0.36,0.81,0.81,0.81l11.98,0c0.45,0,0.81-0.36,0.81-0.81l0-11.93
		c0-0.45-0.36-0.81-0.81-0.81l-11.98,0C24.25,66.84,23.89,67.2,23.89,67.65z"/>
	<line style="fill:none;stroke:#37474F;stroke-miterlimit:10;" x1="22.89" y1="70.8" x2="38.12" y2="70.8"/>
	<g>
		<rect x="90.01" y="65.84" style="fill:#BAE2FD;" width="14.6" height="15.56"/>
	</g>
	<path style="fill:#37474F;" d="M103.61,82.4H91.02c-1.11,0-2-0.9-2-2V66.84c0-1.11,0.9-2,2-2h12.6c1.11,0,2,0.9,2,2v13.55
		C105.61,81.5,104.72,82.4,103.61,82.4z M90.52,67.65l0,11.93c0,0.45,0.36,0.81,0.81,0.81l11.98,0c0.45,0,0.81-0.36,0.81-0.81
		l0-11.93c0-0.45-0.36-0.81-0.81-0.81l-11.98,0C90.88,66.84,90.52,67.2,90.52,67.65z"/>
	<line style="fill:none;stroke:#37474F;stroke-miterlimit:10;" x1="89.51" y1="70.8" x2="104.75" y2="70.8"/>
	<g>
		<path style="fill:#FFCA28;" d="M47.86,107.86c-1.61,0-2.92-1.4-2.92-3.13V65.5c0-2.02,1.53-3.66,3.42-3.66h32.12
			c1.42,0,2.57,1.24,2.57,2.76v40.5c0,1.52-1.15,2.76-2.57,2.76H47.86z"/>
		<path style="fill:#9E740B;" d="M80.49,62.84c0.86,0,1.57,0.79,1.57,1.76v40.5c0,0.97-0.7,1.76-1.57,1.76H47.86
			c-1.06,0-1.92-0.96-1.92-2.13V65.5c0-1.47,1.08-2.66,2.42-2.66H80.49 M80.49,60.84H48.36c-2.44,0-4.42,2.09-4.42,4.66v39.23
			c0,2.28,1.75,4.13,3.92,4.13h32.62c1.97,0,3.57-1.68,3.57-3.76V64.6C84.05,62.52,82.46,60.84,80.49,60.84L80.49,60.84z"/>
	</g>
	<path style="fill:#37474F;" d="M77.12,64.84h-7.49c-1.47,0-2.66,1.19-2.66,2.66v17.59c0,1.47,1.19,2.66,2.66,2.66h7.49
		c1.47,0,2.66-1.19,2.66-2.66V67.5C79.78,66.03,78.59,64.84,77.12,64.84z"/>
	<g>
		<path style="fill:#BAE2FD;" d="M76.57,67.16H70.4c-1.1,0-2,0.9-2,2v14.21c0,1.1,0.9,2,2,2h6.17c1.1,0,2-0.9,2-2V69.16
			C78.57,68.06,77.68,67.16,76.57,67.16z"/>
	</g>
	<path style="fill:#37474F;" d="M58.24,64.84h-7.49c-1.47,0-2.66,1.19-2.66,2.66v17.59c0,1.47,1.19,2.66,2.66,2.66h7.49
		c1.47,0,2.66-1.19,2.66-2.66V67.5C60.89,66.03,59.7,64.84,58.24,64.84z"/>
	<g>
		<path style="fill:#BAE2FD;" d="M57.69,67.16h-6.17c-1.1,0-2,0.9-2,2v14.21c0,1.1,0.9,2,2,2h6.17c1.1,0,2-0.9,2-2V69.16
			C59.69,68.06,58.79,67.16,57.69,67.16z"/>
	</g>
	<line style="fill:none;stroke:#9E740B;stroke-width:2;stroke-miterlimit:10;" x1="64" y1="61.8" x2="64" y2="107.4"/>
	<rect x="6.32" y="65.84" style="fill:#BAE2FD;" width="10.25" height="20.56"/>
	<path style="fill:#37474F;" d="M14.51,85.39c0.73,0,1.33-0.6,1.33-1.33l0-15.89c0-0.73-0.6-1.33-1.33-1.33l-8.18,0v-2h9.11
		c1.11,0,2,0.9,2,2v18.55c0,1.11-0.9,2-2,2H6.32v-2L14.51,85.39z"/>
	<rect x="111.57" y="65.84" style="fill:#BAE2FD;" width="10.11" height="20.56"/>
	<path style="fill:#37474F;" d="M113.49,85.39c-0.73,0-1.33-0.6-1.33-1.33l0-15.89c0-0.73,0.6-1.33,1.33-1.33l8.18,0v-2h-9.11
		c-1.11,0-2,0.9-2,2v18.55c0,1.11,0.9,2,2,2h9.11v-2L113.49,85.39z"/>
</g>
</svg>
